advanced/wallets/react-wallet-v2/public/icons/qr-icon.svg

<svg fill="none" height="512" viewBox="0 0 512 512" width="512" xmlns="http://www.w3.org/2000/svg"><g fill="#8b8b8b"><path d="m408 336h-64c-4.418 0-8 3.582-8 8v64c0 4.418 3.582 8 8 8h64c4.418 0 8-3.582 8-8v-64c0-4.418-3.582-8-8-8z"/><path d="m328 272h-48c-4.418 0-8 3.582-8 8v48c0 4.418 3.582 8 8 8h48c4.418 0 8-3.582 8-8v-48c0-4.418-3.582-8-8-8z"/><path d="m472 416h-48c-4.418 0-8 3.582-8 8v48c0 4.418 3.582 8 8 8h48c4.418 0 8-3.582 8-8v-48c0-4.418-3.582-8-8-8z"/><path d="m472 272h-32c-4.418 0-8 3.582-8 8v32c0 4.418 3.582 8 8 8h32c4.418 0 8-3.582 8-8v-32c0-4.418-3.582-8-8-8z"/><path d="m312 432h-32c-4.418 0-8 3.582-8 8v32c0 4.418 3.582 8 8 8h32c4.418 0 8-3.582 8-8v-32c0-4.418-3.582-8-8-8z"/><path d="m408 96h-64c-4.418 0-8 3.5817-8 8v64c0 4.418 3.582 8 8 8h64c4.418 0 8-3.582 8-8v-64c0-4.4183-3.582-8-8-8z"/></g><path d="m448 48h-144c-8.837 0-16 7.1634-16 16v144c0 8.837 7.163 16 16 16h144c8.837 0 16-7.163 16-16v-144c0-8.8366-7.163-16-16-16z" stroke="#8b8b8b" stroke-linecap="round" stroke-linejoin="round" stroke-width="32"/><path d="m168 96h-64c-4.4183 0-8 3.5817-8 8v64c0 4.418 3.5817 8 8 8h64c4.418 0 8-3.582 8-8v-64c0-4.4183-3.582-8-8-8z" fill="#8b8b8b"/><path d="m208 48h-144c-8.8366 0-16 7.1634-16 16v144c0 8.837 7.1634 16 16 16h144c8.837 0 16-7.163 16-16v-144c0-8.8366-7.163-16-16-16z" stroke="#8b8b8b" stroke-linecap="round" stroke-linejoin="round" stroke-width="32"/><path d="m168 336h-64c-4.4183 0-8 3.582-8 8v64c0 4.418 3.5817 8 8 8h64c4.418 0 8-3.582 8-8v-64c0-4.418-3.582-8-8-8z" fill="#8b8b8b"/><path d="m208 288h-144c-8.8366 0-16 7.163-16 16v144c0 8.837 7.1634 16 16 16h144c8.837 0 16-7.163 16-16v-144c0-8.837-7.163-16-16-16z" stroke="#8b8b8b" stroke-linecap="round" stroke-linejoin="round" stroke-width="32"/></svg>

<svg width="512" height="512" viewBox="0 0 512 512" fill="none" xmlns="http://www.w3.org/2000/svg">
<path d="M408 336H344C339.582 336 336 339.582 336 344V408C336 412.418 339.582 416 344 416H408C412.418 416 416 412.418 416 408V344C416 339.582 412.418 336 408 336Z" fill="#8B8B8B"/>
<path d="M328 272H280C275.582 272 272 275.582 272 280V328C272 332.418 275.582 336 280 336H328C332.418 336 336 332.418 336 328V280C336 275.582 332.418 272 328 272Z" fill="#8B8B8B"/>
<path d="M472 416H424C419.582 416 416 419.582 416 424V472C416 476.418 419.582 480 424 480H472C476.418 480 480 476.418 480 472V424C480 419.582 476.418 416 472 416Z" fill="#8B8B8B"/>
<path d="M472 272H440C435.582 272 432 275.582 432 280V312C432 316.418 435.582 320 440 320H472C476.418 320 480 316.418 480 312V280C480 275.582 476.418 272 472 272Z" fill="#8B8B8B"/>
<path d="M312 432H280C275.582 432 272 435.582 272 440V472C272 476.418 275.582 480 280 480H312C316.418 480 320 476.418 320 472V440C320 435.582 316.418 432 312 432Z" fill="#8B8B8B"/>
<path d="M408 96H344C339.582 96 336 99.5817 336 104V168C336 172.418 339.582 176 344 176H408C412.418 176 416 172.418 416 168V104C416 99.5817 412.418 96 408 96Z" fill="#8B8B8B"/>
<path d="M448 48H304C295.163 48 288 55.1634 288 64V208C288 216.837 295.163 224 304 224H448C456.837 224 464 216.837 464 208V64C464 55.1634 456.837 48 448 48Z" stroke="#8B8B8B" stroke-width="32" stroke-linecap="round" stroke-linejoin="round"/>
<path d="M168 96H104C99.5817 96 96 99.5817 96 104V168C96 172.418 99.5817 176 104 176H168C172.418 176 176 172.418 176 168V104C176 99.5817 172.418 96 168 96Z" fill="#8B8B8B"/>
<path d="M208 48H64C55.1634 48 48 55.1634 48 64V208C48 216.837 55.1634 224 64 224H208C216.837 224 224 216.837 224 208V64C224 55.1634 216.837 48 208 48Z" stroke="#8B8B8B" stroke-width="32" stroke-linecap="round" stroke-linejoin="round"/>
<path d="M168 336H104C99.5817 336 96 339.582 96 344V408C96 412.418 99.5817 416 104 416H168C172.418 416 176 412.418 176 408V344C176 339.582 172.418 336 168 336Z" fill="#8B8B8B"/>
<path d="M208 288H64C55.1634 288 48 295.163 48 304V448C48 456.837 55.1634 464 64 464H208C216.837 464 224 456.837 224 448V304C224 295.163 216.837 288 208 288Z" stroke="#8B8B8B" stroke-width="32" stroke-linecap="round" stroke-linejoin="round"/>
</svg>
